src/16/panel/network-wireless-secure-signal-low.svg

<svg height="16.003" width="16.028" xmlns="http://www.w3.org/2000/svg"><g color="#000" fill="#bebebe"><path d="M8.031 2C4.997 2 2.265 3.077 0 4.75l8.031 8.75L9 12.43v-1.428h1.014c.02-1.635 1.342-3 2.986-3l.018.002L16 4.718C13.743 3.065 11.042 2 8.031 2zM7.97 3c2.393 0 4.524.836 6.437 2.03l-6.437 7L1.594 5c1.9-1.18 4.005-2 6.375-2z" style="marker:none" overflow="visible"/><path d="M7.969 7.812c-.74 0-1.425.16-2.063.438l2.063 2.281 2.093-2.25c-.65-.287-1.338-.469-2.093-.469zM13 9.003c-1.108 0-2 .911-2 2.032v.968h-1v4h6v-4h-1v-.968c0-1.12-.892-2.032-2-2.032zm0 1c.554 0 1 .443 1 1v1h-2v-1c0-.557.446-1 1-1z" style="marker:none" overflow="visible"/></g></svg>

<svg xmlns="http://www.w3.org/2000/svg" width="16" height="16" version="1.1">
 <defs>
  <style id="current-color-scheme" type="text/css">
   .ColorScheme-Text { color:#dfdfdf; } .ColorScheme-Highlight { color:#4285f4; }
  </style>
 </defs>
 <path style="opacity:0.3;fill:currentColor" class="ColorScheme-Text" d="M 8.031,2 C 4.9969,2 2.2653,3.2711 0,5.0156 L 8.031,14 9,12.906 V 11 H 10.014 C 10.033,9.365 11.356,8 13,8 13.108,8 13.21,8.022 13.314,8.033 L 16,5 C 13.743,3.2748 11.042,2 8.031,2 Z"/>
 <path style="fill:currentColor" class="ColorScheme-Text" d="M 8,9 C 6,9 4.4492,10 4.4492,10 L 8,14 C 8.255,13.699 8.653,13.257 9,12.863 V 11 H 10.014 C 10.02,10.444 10.186,9.925 10.455,9.475 9.823,9.233 8.966,9 8,9 Z"/>
 <path style="fill:currentColor" class="ColorScheme-Text" d="M 13,9 C 11.892,9 11,9.911 11,11.031 V 12 H 10 V 16 H 16 V 12 H 15 V 11.031 C 15,9.911 14.108,9 13,9 Z M 13,10 C 13.554,10 14,10.442 14,11 V 12 H 12 V 11 C 12,10.442 12.446,10 13,10 Z"/>
</svg>
